X: 8360
T: Country Attorney
R: jig
M: 6/8
K: Gmajor
|:G2G BAG|F2G A3|B2B dcB|ABG FED|
G2G BAG|F2G A3|BcB AGF|G3G3:|
|:g2e e2g|f2d dcB|e2c c2e|d2B BAG|
c2A A2c|Bdc BAG|AcB AGF|G3G3:|

